X: 1245
T: Kemend-i Zülfü
C: Âfet Mısırlıyan
O: Turkey
F: http://compmusic.upf.edu/node/140
N: karcigar--sarki--duyek--kemend-i_zulfu--afet_misirliyan
N: makam= karcigar
N: form= sarki
N: usul= duyek = 8/4
M: 8/4
L: 1/16
K: C _2/4B _3/4e ^3/4f 
Q: 1/4=120
%%MIDI tuningsystem comma53
z4 =B2 c2 d4 d4  | d=e dc d2 e2 =f2 g2 fe d2  | \
w:   |   | 
z2 a2 g2 g=f f3=e fe ed  | 
w:   | 
d6 c2 =B2 c2 A4  | z4 =B2 c2 d4 d4  | \
w:   |   | 
d=e dc d2 e2 =f2 g2 fe d2  | 
w:   | 
z2 a2 g2 g=f f3=e fe ed  | d6 =fg ag fg a4  | \
w:   |   | 
a3g =f2 g2 a2 =b2 c'2 d'2  | 
w:   | 
c'2 _b2 a2 g2 =f=e dc d3c  | g=f =ed d3c ed c=B c2 d2  | 
w:   |   | 
c2 =B2 AG AB c2 d2 =e4  | d2 =e2 e4 a2 e2 _e3d  | \
w:   |   | 
d_e dc c=B BA A3G Bc d2  | 
w:   | 
=f=e dc c3=B Bc BA A6 a_b ag gf g4 z4  | \
w:   | 
=f2 g2 g4 g4 gf ga  | 
w:   | 
=f2 g2 gf =e^d e4 c2 =d4 e2 c4 c=b ag g6 a_b ag fg ac' ba a4  | 
w:   | 
=f2 g2 a2 _bc' ba g2 ab ag  | =f2 g2 f=e ed d4 d2 a2  | 
w:   |   | 
g2 =f2 f3=e fe ed d6 fg ag fg a4 A6 dc c=B BA A4 Bc BA  | 
w:   | 
=B2 c2 d2 =e=f ed c2 de dc  | d2 =e2 =f2 ga f2 ed d2 _ba  | 
w:   |   | 
g2 a2 =f3=e fe ed d6 fg ag fg a4 a3g  | \
w:   | 
=f2 g2 a2 _bc' ba g2 ag f2  | 
w:   | 
z4 g=f =e2 z4 fe d4 dc c=B BA A4 Bc d2  | \
w:   | 
=f=e dc c3=B cB BA A4  | 
w:   | 
z2 dc c=B BA A4 Bc BA  | =B2 c2 d2 =e=f ed c2 de dc  | 
w:   |   | 
d2 =e2 =f2 ga f2 ed d2 _ba  | g2 a2 =f3=e fe ed d6 fg ag fg a4 a3g  | 
w:   |   | 
=f2 g2 a2 _bc' ba g2 ag f2  | z4 g=f =e2 z4 fe d4 dc c=B BA A4 Bc d2  | 
w:   |   | 
=f=e dc c3=B cB BA A4  | z2 dc c=B BA A4 a3g  | 
w:   |   | 
=f2 g2 a2 =b2 c'2 d'2 c'2 _b2  | a2 g2 =f=e dc d3c gf ed  | \
w:   |   | 
d3c =ed c=B c2 d2 c2 B2  | 
w:   | 
AG A=B c2 d2 =e4 d2 e2  | =e4 a2 e2 _e3d de dc  | \
w:   |   | 
c=B BA A3G Bc d2 =f=e dc  | 
w:   | 
c3=B Bc BA A6 a_b  | ag g=f g4 z4 f2 g2  | \
w:   |   | 
g4 g4 g=f ga f2 g2  | 
w:   | 
g=f =e^d e4 c2 =d4 e2  | c4 c=b ag g6 a_b  | \
w:   |   | 
ag =fg ac' _ba a4 f2 g2  | 
w:   | 
a2 _bc' ba g2 ab ag =f2 g2  | =f=e ed d4 d2 a2 g2 f2  | 
w:   |   | 
=f3=e fe ed d6 fg  | ag =fg a4 A6 dc  | \
w:   |   | 
c=B BA A4 Bc BA B2 c2  | 
w:   | 
d2 =e=f ed c2 de dc d2 e2  | =f2 ga f2 =ed d2 _ba g2 a2  | 
w:   |   | 
=f3=e fe ed d6 fg  | ag =fg a4 a3g f2 g2  | \
w:   |   | 
a2 _bc' ba g2 ag =f2 z4  | 
w:   | 
g=f =e2 z4 fe d4 dc  | c=B BA A4 Bc d2 =f=e dc  | 
w:   |   | 
c3=B cB BA A4 z2 dc  | c=B BA A4 Bc BA B2 c2  | 
w:   |   | 
d2 =e=f ed c2 de dc d2 e2  | =f2 ga f2 =ed d2 _ba g2 a2  | 
w:   |   | 
=f3=e fe ed d6 fg  | ag =fg a4 a3g f2 g2  | \
w:   |   | 
a2 _bc' ba g2 ag =f2 z4  | 
w:   | 
g=f =e2 z4 fe d4 dc  | c=B BA A4 Bc d2 =f=e dc  | 
w:   |   | 
c3=B cB BA A4 z2 dc  | c=B BA A4 |
w:   |   | 


